X: 29326
T: New Yorker, The
R: reel
M: 4/4
K: Amajor
"A"EAcA B2Ae-|"/C#"eAcA BAFD|"D"EAcA B2Af-|fe (3c/B/A/ "E"BAFD|
"A"EAcA B2Ae-|"/C#"eAcA BAFA-|"D"A2ec BAFA-|1 A~A3 "E"BAFA:|2 "D"~A3A2E FA||
"E"B2AB2E FB|"F#m"A2BA ABBA|"D"c2BA BAFB|cBAF AEFA|
"E"B2AB2E FB|"F#m"A2BA ABBA|"D"f2ea2 (3g/f/e/ a-|a (3g/f/e/ c BAFA|
"E"B2BA BdcB|"F#m"cAAA A3B|"D"c2BA BAFB|"(G)"cBAF BEFA|
"E"B2AB2E FB|"F#m"A2BA AAce|"D"f2ea4c'-|c'baf ecBA||

